img/answer-checkbox.svg

<?xml version="1.0" encoding="UTF-8" standalone="no"?>
<svg
   xmlns:dc="http://purl.org/dc/elements/1.1/"
   xmlns:cc="http://creativecommons.org/ns#"
   xmlns:rdf="http://www.w3.org/1999/02/22-rdf-syntax-ns#"
   xmlns:svg="http://www.w3.org/2000/svg"
   xmlns="http://www.w3.org/2000/svg"
   xmlns:sodipodi="http://sodipodi.sourceforge.net/DTD/sodipodi-0.dtd"
   xmlns:inkscape="http://www.inkscape.org/namespaces/inkscape"
   height="16"
   width="16"
   version="1.1"
   id="svg862"
   sodipodi:docname="answer-checkbox.svg"
   inkscape:version="0.92.4 5da689c313, 2019-01-14">
  <metadata
     id="metadata868">
    <rdf:RDF>
      <cc:Work
         rdf:about="">
        <dc:format>image/svg+xml</dc:format>
        <dc:type
           rdf:resource="http://purl.org/dc/dcmitype/StillImage" />
      </cc:Work>
    </rdf:RDF>
  </metadata>
  <defs
     id="defs866" />
  <sodipodi:namedview
     pagecolor="#ffffff"
     bordercolor="#666666"
     borderopacity="1"
     objecttolerance="10"
     gridtolerance="10"
     guidetolerance="10"
     inkscape:pageopacity="0"
     inkscape:pageshadow="2"
     inkscape:window-width="2520"
     inkscape:window-height="1353"
     id="namedview864"
     showgrid="false"
     inkscape:zoom="36.125"
     inkscape:cx="1.8897716"
     inkscape:cy="9.8066108"
     inkscape:window-x="20"
     inkscape:window-y="67"
     inkscape:window-maximized="1"
     inkscape:current-layer="svg862" />
  <path
     style="opacity:1;fill:#000000;fill-opacity:1;stroke:none;stroke-width:1.79999995;stroke-linecap:butt;stroke-linejoin:round;stroke-miterlimit:4;stroke-dasharray:none;stroke-opacity:1;paint-order:markers fill stroke"
     d="M 1.5 1 C 1.223 1 1 1.223 1 1.5 L 1 14.5 C 1 14.777 1.223 15 1.5 15 L 14.5 15 C 14.777 15 15 14.777 15 14.5 L 15 1.5 C 15 1.223 14.777 1 14.5 1 L 1.5 1 z M 12.255859 4 L 13.5 5.2421875 L 6.7734375 12 L 2.5 7.7011719 L 3.7167969 6.4746094 L 6.7832031 9.5410156 L 12.255859 4 z "
     id="rect870" />
</svg>

<svg xmlns="http://www.w3.org/2000/svg" height="16" width="16">
  <path d="M1.5 1c-.277 0-.5.223-.5.5v13c0 .277.223.5.5.5h13c.277 0 .5-.223.5-.5v-13c0-.277-.223-.5-.5-.5h-13zm10.756 3L13.5 5.242 6.773 12 2.5 7.701l1.217-1.226L6.783 9.54 12.256 4z"/>
</svg>
